dealnox/img/sprite/icon-privacy.svg

<svg width="21" height="21" viewBox="0 0 21 21" fill="none" xmlns="http://www.w3.org/2000/svg">
<g clip-path="url(#clip0_666_647)">
<path d="M15.7503 20.9995H0.0020752C0.0020752 20.9484 0.0020752 20.8973 0.0020752 20.8458V0.191388C0.0020752 0.157493 0.0020752 0.123157 0.0020752 0.0892618C0.0020752 0.0628501 0.00779857 0.0368785 0.0122018 0.00122258H0.13858C4.08624 0.00122258 8.03347 0.00122258 11.9802 0.00122258C12.017 -0.00039873 12.0536 0.00600855 12.0876 0.0199976C12.1216 0.0339866 12.1521 0.0552204 12.1771 0.0822185C13.3404 1.24786 14.5055 2.41203 15.6724 3.57474C15.7005 3.60075 15.7226 3.63258 15.7372 3.668C15.7518 3.70342 15.7586 3.74159 15.7569 3.77987C15.7543 5.54652 15.7543 7.31303 15.7569 9.07939V9.21497C15.7908 9.22201 15.8168 9.22774 15.845 9.23258C16.0832 9.2766 16.3254 9.30653 16.5588 9.36904C18.2725 9.82772 19.5423 10.8435 20.368 12.4165C20.7423 13.1254 20.9531 13.909 20.9849 14.7099C20.9882 14.7363 20.9937 14.7624 21.0012 14.7879V15.3821C20.9944 15.3973 20.9894 15.4133 20.9862 15.4297C20.9818 15.5177 20.9862 15.6057 20.9748 15.6938C20.9362 16.0667 20.8625 16.4352 20.7546 16.7943C20.1571 18.7809 18.5186 20.333 16.5059 20.8137C16.2858 20.8665 16.0572 20.8973 15.8322 20.9378C15.7926 20.9475 15.7516 20.9462 15.7503 20.9995ZM1.32261 1.31433V19.6705H11.373C11.3391 19.6388 11.3189 19.6181 11.2969 19.5992C10.8956 19.263 10.5417 18.874 10.2449 18.4428C10.231 18.4158 10.2089 18.3938 10.1818 18.38C10.1547 18.3662 10.124 18.3612 10.0939 18.3658C10.0666 18.3673 10.0393 18.3673 10.012 18.3658H3.16405C3.01699 18.3658 2.86992 18.3658 2.72373 18.3658C2.69467 18.3658 2.66516 18.3609 2.63126 18.3574V18.2253C2.63126 16.9884 2.63126 15.7516 2.63126 14.5149C2.63088 14.4158 2.63603 14.3168 2.64667 14.2182C2.69643 13.7802 2.91571 13.4593 3.31596 13.2683C3.53639 13.1654 3.77723 13.1136 4.02049 13.1169C5.81496 13.1169 7.60899 13.1169 9.40258 13.1169H9.53468C9.92305 12.0525 10.5474 11.1672 11.4281 10.4664C12.292 9.7738 13.3349 9.34085 14.4355 9.21805V5.24308H10.6373C10.5932 5.24308 10.5527 5.23868 10.5153 5.23604C10.5124 5.22861 10.5102 5.22095 10.5087 5.21315C10.5087 3.92865 10.5077 2.64416 10.5056 1.35967C10.5049 1.34947 10.5036 1.33932 10.5016 1.3293C10.501 1.32597 10.4996 1.32283 10.4977 1.32005C10.4977 1.31741 10.4924 1.31609 10.4876 1.31301L1.32261 1.31433ZM10.5052 15.0863C10.5052 17.6135 12.5747 19.6798 15.1 19.678C16.3171 19.6758 17.4838 19.1912 18.3442 18.3305C19.2046 17.4698 19.6885 16.3031 19.6899 15.0863C19.6899 12.5539 17.6287 10.4937 15.0982 10.4964C13.881 10.4985 12.7142 10.9827 11.8534 11.8429C10.9925 12.7032 10.5077 13.8695 10.5052 15.0863ZM14.14 3.92866L14.148 3.90885L11.8873 1.64932C11.8728 1.63479 11.857 1.62247 11.8433 1.60926C11.8403 1.60815 11.837 1.60815 11.8341 1.60926C11.831 1.61001 11.828 1.6112 11.8253 1.61278V3.92997L14.14 3.92866Z" fill="#968E8E"/>
<path d="M7.877 11.8065C7.35711 11.8058 6.84914 11.6508 6.41748 11.3611C5.98582 11.0715 5.6499 10.6602 5.45233 10.1794C5.25476 9.69869 5.20442 9.17012 5.30769 8.66074C5.41096 8.15136 5.6632 7.6841 6.03242 7.3182C6.40164 6.9523 6.87123 6.70424 7.38165 6.60546C7.89206 6.50667 8.42032 6.56162 8.89946 6.76334C9.3786 6.96505 9.78704 7.30445 10.073 7.7385C10.359 8.17255 10.5096 8.68171 10.5057 9.20143C10.4992 9.8943 10.2195 10.5566 9.72725 11.0444C9.23502 11.5322 8.5701 11.8061 7.877 11.8065Z" fill="#968E8E"/>
<path d="M17.1692 14.4319H17.7156V17.6959C17.6346 17.7171 12.5739 17.7184 12.4793 17.6959V14.4332H13.027C13.027 14.3892 13.027 14.3513 13.027 14.3157C13.0169 13.9274 13.0446 13.544 13.1653 13.1711C13.3991 12.4488 13.8839 11.998 14.6298 11.8479C15.0571 11.7556 15.5021 11.789 15.9107 11.9443C16.4743 12.1644 16.8319 12.5747 17.0212 13.1412C17.1298 13.4839 17.1799 13.8424 17.1692 14.2016C17.1683 14.2738 17.1692 14.3452 17.1692 14.4319ZM15.8482 14.4248C15.8656 14.2469 15.8639 14.0676 15.8433 13.89C15.8247 13.7519 15.7921 13.6161 15.746 13.4846C15.7165 13.3928 15.6612 13.3115 15.5867 13.2503C15.5122 13.1891 15.4217 13.1506 15.326 13.1395C15.1707 13.1171 15.0129 13.1182 14.8579 13.1425C14.6721 13.172 14.5497 13.2799 14.4687 13.4401C14.4386 13.5014 14.4153 13.5658 14.3991 13.632C14.3446 13.8508 14.3245 14.0767 14.3396 14.3016C14.3396 14.3412 14.348 14.3812 14.3524 14.4248H15.8482Z" fill="#968E8E"/>
</g>
<defs>
<clipPath id="clip0_666_647">
<rect width="21" height="21" fill="white"/>
</clipPath>
</defs>
</svg>

<svg width="21" height="21" fill="none" xmlns="http://www.w3.org/2000/svg"><g clip-path="url(#clip0_666_647)" fill="#968E8E"><path d="M15.75 21H.002V.19.09c0-.026.006-.052.01-.088H11.98a.253.253 0 0 1 .197.081c1.163 1.166 2.329 2.33 3.495 3.493a.264.264 0 0 1 .085.205c-.003 1.767-.003 3.533 0 5.3v.135l.088.018c.238.044.48.074.714.136 1.713.459 2.983 1.475 3.809 3.047.374.71.585 1.493.617 2.294a.494.494 0 0 0 .016.078v.594a.22.22 0 0 0-.015.048c-.004.088 0 .176-.011.264a5.955 5.955 0 0 1-.22 1.1 5.905 5.905 0 0 1-4.25 4.02c-.22.052-.448.083-.673.124-.04.01-.08.008-.082.062zM1.323 1.314v18.357h10.05c-.034-.032-.054-.053-.076-.072a5.795 5.795 0 0 1-1.052-1.156.145.145 0 0 0-.151-.077.746.746 0 0 1-.082 0H2.724c-.03 0-.059-.005-.093-.009v-.132-3.71c0-.1.005-.198.016-.297.05-.438.269-.759.669-.95.22-.103.461-.154.704-.151h5.515a5.894 5.894 0 0 1 1.893-2.65 5.844 5.844 0 0 1 3.007-1.249V5.243h-3.798c-.044 0-.084-.004-.122-.007a.13.13 0 0 1-.006-.023c0-1.284-.001-2.569-.003-3.853l-.004-.03a.024.024 0 0 0-.004-.01c0-.003-.006-.004-.01-.007l-9.165.001zm9.182 13.772a4.606 4.606 0 0 0 4.595 4.592 4.6 4.6 0 0 0 4.59-4.592 4.594 4.594 0 0 0-4.592-4.59 4.602 4.602 0 0 0-4.593 4.59zM14.14 3.93l.008-.02-2.26-2.26-.045-.04a.013.013 0 0 0-.009 0 .033.033 0 0 0-.009.004V3.93l2.315-.001z"/><path d="M7.877 11.806a2.625 2.625 0 1 1 .007-5.25 2.625 2.625 0 0 1-.007 5.25zM17.17 14.432h.546v3.264c-.081.021-5.142.022-5.237 0v-3.263h.548v-.117c-.01-.389.018-.772.138-1.145.234-.722.719-1.173 1.465-1.323a2.262 2.262 0 0 1 1.28.096c.564.22.922.63 1.111 1.197.109.343.159.701.148 1.06v.23zm-1.322-.007a2.516 2.516 0 0 0-.005-.535 2.054 2.054 0 0 0-.097-.405.502.502 0 0 0-.42-.345 1.573 1.573 0 0 0-.468.002.51.51 0 0 0-.39.298.945.945 0 0 0-.069.192 2.17 2.17 0 0 0-.06.67c0 .04.009.08.013.123h1.496z"/></g><defs><clipPath id="clip0_666_647"><path fill="#fff" d="M0 0h21v21H0z"/></clipPath></defs></svg>
